X:005
U: ~ = !turn!
%%topmargin 3cm
T:Ballinasloe Fair
B:Traditional Irish Fiddle Tunes. Randy Miller and Jack Perron.
Z:Transcribed by Ralph Palmer
S:Michael Coleman
R:Reel
L:1/8
M:C|
K:Am
A3 B PcBcA | {/A}GEC>E GECE | AGAB PcBca | gedB ((3cBA) dB |
A3 B cBcA | {/A}GEC>E GECE | AGAB PcBca | gedB cdef ||
"(A"|: gc (3.c.c.c gcac | gc (3.c.c.c Bcde "A)"| gc (3.c.c.c Pgfga | gedB cdef |
gc (3.c.c.c ac (3.c.c.c | gc (3.c.c.c PBABd | A3 B cBca | [1 gedB cdef :|] [2 gedB ((3cBA) dB |]
xxxx "(A"|| Jg2 af gbaf | gc Pc2 Bcde "A)"|| xxxx [|] xxxx "End" | gedB [E2c2] |]
